X: 68
T: No_15_The_World_Would_Burn_Without_the_Rain.krn
N: Derived from No_15_The_World_Would_Burn_Without_the_Rain.krn
%%abc-version 2.0
%%abcx-abcm2ps-target-version 5.9.1 (29 Sep 2008)
%%abc-creator hum2abc beta
%%abcx-conversion-date 2019/03/15 08:37:56
%%humdrum-veritas 3555807218
%%humdrum-veritas-data 4198688270
%%linebreak <none>
%%barnumbers 0
L: 1/4
M: 3/4
K: G clef=bass
[K:clef=bass][M:3/4]B,3/^A,/B, | 
E,2z | 
B,E,E, | 
F,3/E,/ F,/D,/ | 
D,/B,,/-B,,D,/B,,/ | 
B,,2z | 
E,2E, ||  
[M:2/4]D,2 | 
E,2 | 
E,3/D,/ ||  
[M:3/4]E,E,2 ||  
[M:2/4]E,2 ||  
[M:3/4]B,3/^A,/B, | 
E,2z | 
B,E,E, | 
F,3/E,/ F,/D,/ | 
D,/B,,/-B,,D,/B,,/ | 
B,,2z | 
E,2E, ||  
[M:2/4]D,2 | 
E,2 | 
E,3/D,/ ||  
[M:3/4]E,E,2- ||  
[M:2/4]E,B,, | 
E,3/D,/ | 
E,3/D,/ | 
E,/C,/ C,/A,,/- | 
A,,E,/D,/ ||  
[M:3/4]E,2D,/B,,/ ||  
[M:2/4]B,,2 | 
D,/B,,/z ||  
[M:3/4]E,2E, ||  
[M:2/4]D,2 | 
E,2 | 
E,3/D,/ ||  
[M:3/4]E,E,2 | 
E,3 |]  



